build/img/googleplay-icon.svg

<svg width="174" height="64" viewBox="0 0 174 64" fill="none" xmlns="http://www.w3.org/2000/svg">
<rect width="174" height="64" rx="8" fill="black"/>
<path d="M60.972 27.144C59.628 27.144 58.46 26.692 57.468 25.788L58.032 25.128C58.88 25.928 59.864 26.328 60.984 26.328C61.52 26.328 61.98 26.18 62.364 25.884C62.748 25.58 62.94 25.188 62.94 24.708C62.94 24.188 62.732 23.8 62.316 23.544C61.9 23.288 61.352 23.16 60.672 23.16H59.748V22.38H60.672C61.28 22.38 61.772 22.24 62.148 21.96C62.532 21.672 62.724 21.284 62.724 20.796C62.724 20.364 62.544 20.008 62.184 19.728C61.832 19.44 61.38 19.296 60.828 19.296C59.884 19.296 59.06 19.612 58.356 20.244L57.804 19.584C58.244 19.208 58.7 18.928 59.172 18.744C59.652 18.56 60.212 18.468 60.852 18.468C61.684 18.468 62.364 18.68 62.892 19.104C63.42 19.528 63.684 20.064 63.684 20.712C63.684 21.664 63.172 22.324 62.148 22.692C62.684 22.852 63.112 23.104 63.432 23.448C63.752 23.792 63.912 24.228 63.912 24.756C63.912 25.436 63.636 26.004 63.084 26.46C62.54 26.916 61.836 27.144 60.972 27.144ZM67.5089 27.132C66.8769 27.132 66.3329 26.96 65.8769 26.616C65.4209 26.272 65.1929 25.792 65.1929 25.176C65.1929 24.528 65.4329 24.028 65.9129 23.676C66.3929 23.324 67.0369 23.148 67.8449 23.148C68.4849 23.148 69.1169 23.236 69.7409 23.412V23.22C69.7409 22.676 69.5809 22.26 69.2609 21.972C68.9409 21.684 68.4889 21.54 67.9049 21.54C67.2969 21.54 66.6689 21.688 66.0209 21.984L65.7449 21.228C66.5129 20.876 67.2649 20.7 68.0009 20.7C68.8809 20.7 69.5489 20.928 70.0049 21.384C70.4369 21.816 70.6529 22.424 70.6529 23.208V27H69.7409V26.076C69.1889 26.78 68.4449 27.132 67.5089 27.132ZM67.6889 26.388C68.2649 26.388 68.7529 26.232 69.1529 25.92C69.5529 25.608 69.7529 25.208 69.7529 24.72V24.144C69.1449 23.968 68.5409 23.88 67.9409 23.88C67.3729 23.88 66.9289 23.996 66.6089 24.228C66.2889 24.452 66.1289 24.76 66.1289 25.152C66.1289 25.528 66.2769 25.828 66.5729 26.052C66.8769 26.276 67.2489 26.388 67.6889 26.388ZM72.6101 27V20.796H76.8221V21.612H73.5341V27H72.6101ZM78.1648 28.92V20.796H79.0888V22.044C79.7128 21.124 80.5048 20.664 81.4648 20.664C82.2568 20.664 82.9488 20.96 83.5408 21.552C84.1328 22.136 84.4288 22.92 84.4288 23.904C84.4288 24.872 84.1328 25.652 83.5408 26.244C82.9488 26.836 82.2568 27.132 81.4648 27.132C80.4888 27.132 79.6968 26.692 79.0888 25.812V28.92H78.1648ZM81.2968 26.304C81.9208 26.304 82.4408 26.088 82.8568 25.656C83.2728 25.216 83.4808 24.628 83.4808 23.892C83.4808 23.18 83.2688 22.604 82.8448 22.164C82.4208 21.716 81.9048 21.492 81.2968 21.492C80.6968 21.492 80.1728 21.72 79.7248 22.176C79.2768 22.632 79.0528 23.208 79.0528 23.904C79.0528 24.6 79.2768 25.176 79.7248 25.632C80.1728 26.08 80.6968 26.304 81.2968 26.304ZM87.0936 28.956C86.6456 28.956 86.2056 28.852 85.7736 28.644L86.0856 27.912C86.3816 28.064 86.7056 28.14 87.0576 28.14C87.3376 28.14 87.5736 28.052 87.7656 27.876C87.9576 27.708 88.1456 27.408 88.3296 26.976L85.5096 20.796H86.5296L88.7856 25.968L90.7776 20.796H91.7616L89.1576 27.204C88.8936 27.836 88.6016 28.284 88.2816 28.548C87.9616 28.82 87.5656 28.956 87.0936 28.956ZM95.1914 27.144C94.2394 27.144 93.3834 26.836 92.6234 26.22L93.0914 25.536C93.7234 26.072 94.4154 26.34 95.1674 26.34C95.5914 26.34 95.9514 26.244 96.2474 26.052C96.5514 25.852 96.7034 25.58 96.7034 25.236C96.7034 24.916 96.5674 24.668 96.2954 24.492C96.0234 24.308 95.6394 24.216 95.1434 24.216H94.3154V23.46H95.1554C95.5634 23.46 95.8954 23.364 96.1514 23.172C96.4074 22.972 96.5354 22.712 96.5354 22.392C96.5354 22.112 96.4074 21.888 96.1514 21.72C95.9034 21.552 95.5834 21.468 95.1914 21.468C94.4554 21.468 93.8274 21.676 93.3074 22.092L92.8514 21.444C93.5234 20.924 94.3234 20.664 95.2514 20.664C95.9394 20.664 96.4834 20.82 96.8834 21.132C97.2914 21.436 97.4954 21.832 97.4954 22.32C97.4954 23 97.1634 23.476 96.4994 23.748C97.2674 24.02 97.6514 24.528 97.6514 25.272C97.6514 25.792 97.4274 26.236 96.9794 26.604C96.5314 26.964 95.9354 27.144 95.1914 27.144ZM99.364 27V20.796H100.288V25.704L103.972 20.796H104.872V27H103.948V22.092L100.252 27H99.364ZM108.434 27V21.612H106.214V20.796H111.59V21.612H109.37V27H108.434ZM112.934 27V20.796H113.858V23.124H115.514C116.234 23.124 116.822 23.28 117.278 23.592C117.734 23.896 117.962 24.36 117.962 24.984C117.962 25.6 117.75 26.092 117.326 26.46C116.902 26.82 116.334 27 115.622 27H112.934ZM113.858 26.184H115.538C116.01 26.184 116.374 26.084 116.63 25.884C116.894 25.684 117.026 25.392 117.026 25.008C117.026 24.656 116.89 24.388 116.618 24.204C116.354 24.012 115.982 23.916 115.502 23.916H113.858V26.184ZM122.989 27V20.796H125.989C126.605 20.796 127.097 20.936 127.465 21.216C127.833 21.496 128.017 21.872 128.017 22.344C128.017 23.008 127.673 23.484 126.985 23.772C127.897 24.02 128.353 24.532 128.353 25.308C128.353 25.828 128.149 26.24 127.741 26.544C127.333 26.848 126.785 27 126.097 27H122.989ZM123.913 26.208H125.977C126.417 26.208 126.765 26.116 127.021 25.932C127.277 25.748 127.405 25.492 127.405 25.164C127.405 24.86 127.269 24.624 126.997 24.456C126.733 24.288 126.353 24.204 125.857 24.204H123.913V26.208ZM123.913 23.46H125.821C126.205 23.46 126.509 23.376 126.733 23.208C126.965 23.032 127.081 22.784 127.081 22.464C127.081 22.2 126.973 21.988 126.757 21.828C126.541 21.668 126.237 21.588 125.845 21.588H123.913V23.46Z" fill="white"/>
<path d="M57.8862 37.7485C57.8862 37.021 58.0205 36.3276 58.2891 35.6685C58.5625 35.0044 58.9336 34.4258 59.4023 33.9326C59.8711 33.4395 60.4448 33.0488 61.1235 32.7607C61.8022 32.4678 62.5273 32.3213 63.2988 32.3213C64.1777 32.3213 64.9272 32.4385 65.5474 32.6729C66.1724 32.9023 66.7681 33.2588 67.3345 33.7422L66.1626 35.1411C65.7134 34.7603 65.2666 34.4771 64.8223 34.2915C64.3828 34.106 63.8506 34.0132 63.2256 34.0132C62.5957 34.0132 62.0171 34.1816 61.4897 34.5186C60.9673 34.8555 60.5571 35.3096 60.2593 35.8809C59.9663 36.4521 59.8198 37.0747 59.8198 37.7485C59.8198 38.4663 59.9663 39.1084 60.2593 39.6748C60.5522 40.2412 60.9697 40.688 61.5117 41.0151C62.0586 41.3374 62.6836 41.4985 63.3867 41.4985C64.3779 41.4985 65.2251 41.2349 65.9282 40.7075V38.7373H63.2402V37.1333H67.708V41.5425C66.4336 42.6362 64.9736 43.1831 63.3281 43.1831C62.2539 43.1831 61.2993 42.9463 60.4644 42.4727C59.6343 41.9941 58.9971 41.3447 58.5527 40.5244C58.1084 39.6992 57.8862 38.7739 57.8862 37.7485ZM69.4658 39.0522C69.4658 38.3052 69.6465 37.6167 70.0078 36.9868C70.374 36.3521 70.8818 35.8491 71.5312 35.478C72.1855 35.1021 72.9082 34.9141 73.6992 34.9141C74.4951 34.9141 75.2153 35.0996 75.8599 35.4707C76.5044 35.8369 77.0073 36.3374 77.3687 36.9722C77.73 37.6021 77.9106 38.2954 77.9106 39.0522C77.9106 39.6089 77.8032 40.1411 77.5884 40.6489C77.3735 41.1519 77.0806 41.5913 76.7095 41.9673C76.3384 42.3384 75.8892 42.6338 75.3618 42.8535C74.8345 43.0732 74.2705 43.1831 73.6699 43.1831C72.8789 43.1831 72.1611 42.9976 71.5166 42.6265C70.8721 42.2554 70.3691 41.7549 70.0078 41.125C69.6465 40.4951 69.4658 39.8042 69.4658 39.0522ZM71.2822 39.0522C71.2822 39.7554 71.5117 40.3584 71.9707 40.8613C72.4297 41.3594 73.0059 41.6084 73.6992 41.6084C74.417 41.6084 74.9956 41.3618 75.4351 40.8687C75.8745 40.3755 76.0942 39.77 76.0942 39.0522C76.0942 38.3442 75.8647 37.7437 75.4058 37.2505C74.9517 36.7524 74.373 36.5034 73.6699 36.5034C72.957 36.5034 72.3809 36.7476 71.9414 37.2358C71.502 37.7241 71.2822 38.3296 71.2822 39.0522ZM79.3242 39.0522C79.3242 38.3052 79.5049 37.6167 79.8662 36.9868C80.2324 36.3521 80.7402 35.8491 81.3896 35.478C82.0439 35.1021 82.7666 34.9141 83.5576 34.9141C84.3535 34.9141 85.0737 35.0996 85.7183 35.4707C86.3628 35.8369 86.8657 36.3374 87.2271 36.9722C87.5884 37.6021 87.769 38.2954 87.769 39.0522C87.769 39.6089 87.6616 40.1411 87.4468 40.6489C87.2319 41.1519 86.939 41.5913 86.5679 41.9673C86.1968 42.3384 85.7476 42.6338 85.2202 42.8535C84.6929 43.0732 84.1289 43.1831 83.5283 43.1831C82.7373 43.1831 82.0195 42.9976 81.375 42.6265C80.7305 42.2554 80.2275 41.7549 79.8662 41.125C79.5049 40.4951 79.3242 39.8042 79.3242 39.0522ZM81.1406 39.0522C81.1406 39.7554 81.3701 40.3584 81.8291 40.8613C82.2881 41.3594 82.8643 41.6084 83.5576 41.6084C84.2754 41.6084 84.854 41.3618 85.2935 40.8687C85.7329 40.3755 85.9526 39.77 85.9526 39.0522C85.9526 38.3442 85.7231 37.7437 85.2642 37.2505C84.8101 36.7524 84.2314 36.5034 83.5283 36.5034C82.8154 36.5034 82.2393 36.7476 81.7998 37.2358C81.3604 37.7241 81.1406 38.3296 81.1406 39.0522ZM89.2119 38.6348C89.2119 38.0684 89.312 37.5483 89.5122 37.0747C89.7173 36.5962 89.9883 36.2031 90.3252 35.8955C90.6621 35.583 91.0454 35.3413 91.4751 35.1704C91.9048 34.9995 92.3516 34.9141 92.8154 34.9141C93.4307 34.9141 93.958 35.0361 94.3975 35.2803C94.8418 35.5195 95.2397 35.8467 95.5913 36.2617V35.0825H97.4077V41.3813C97.4077 42.6948 97.0708 43.6885 96.397 44.3623C95.6841 45.0752 94.6001 45.4316 93.145 45.4316C91.8267 45.4316 90.6475 45.1167 89.6074 44.4868L90.2812 43.1172C91.1797 43.6787 92.1196 43.9595 93.1011 43.9595C93.9116 43.9595 94.5317 43.752 94.9614 43.3369C95.3911 42.9219 95.606 42.3188 95.606 41.5278V40.9126C95.2446 41.3813 94.8418 41.7427 94.3975 41.9966C93.958 42.2456 93.4307 42.3701 92.8154 42.3701C92.3467 42.3701 91.8975 42.2847 91.4678 42.1138C91.0381 41.9429 90.6548 41.7036 90.3179 41.396C89.981 41.0835 89.7124 40.688 89.5122 40.2095C89.312 39.731 89.2119 39.2061 89.2119 38.6348ZM91.043 38.6494C91.043 39.2891 91.2578 39.814 91.6875 40.2241C92.1221 40.6343 92.6567 40.8394 93.2915 40.8394C93.936 40.8394 94.4854 40.6318 94.9395 40.2168C95.3936 39.8018 95.6206 39.2744 95.6206 38.6348C95.6206 37.9951 95.3936 37.4702 94.9395 37.0601C94.4854 36.6499 93.936 36.4448 93.2915 36.4448C92.6519 36.4448 92.1172 36.6499 91.6875 37.0601C91.2578 37.4653 91.043 37.9951 91.043 38.6494ZM99.7734 43V32.0503H101.59V43H99.7734ZM103.523 39.0376C103.523 38.2856 103.687 37.5972 104.014 36.9722C104.341 36.3423 104.803 35.8418 105.398 35.4707C105.994 35.0996 106.661 34.9141 107.398 34.9141C107.891 34.9141 108.345 34.9897 108.76 35.1411C109.175 35.2876 109.529 35.4927 109.822 35.7563C110.12 36.02 110.372 36.3325 110.577 36.6938C110.787 37.0503 110.94 37.4385 111.038 37.8584C111.141 38.2783 111.192 38.7178 111.192 39.1768C111.192 39.3965 111.182 39.5649 111.163 39.6821H105.34C105.438 40.3169 105.691 40.8125 106.102 41.1689C106.517 41.5205 107.022 41.6963 107.618 41.6963C108.047 41.6963 108.431 41.6206 108.768 41.4692C109.104 41.313 109.437 41.0737 109.764 40.7515L110.833 41.6963C110.013 42.6875 108.931 43.1831 107.588 43.1831C106.827 43.1831 106.138 43.0122 105.523 42.6704C104.908 42.3286 104.419 41.8403 104.058 41.2056C103.702 40.5708 103.523 39.8481 103.523 39.0376ZM105.325 38.4883H109.39C109.327 37.873 109.119 37.3726 108.768 36.9868C108.421 36.5962 107.959 36.4009 107.383 36.4009C106.836 36.4009 106.377 36.5938 106.006 36.9795C105.64 37.3604 105.413 37.8633 105.325 38.4883ZM117.718 43V32.4971H121.863C123.084 32.4971 124.053 32.8193 124.771 33.4639C125.489 34.1035 125.848 34.9629 125.848 36.042C125.848 36.8037 125.655 37.4604 125.269 38.0122C124.888 38.5591 124.385 38.9644 123.76 39.228C123.14 39.4917 122.437 39.6235 121.651 39.6235H119.563V43H117.718ZM119.563 37.9609H121.709C122.398 37.9609 122.947 37.7876 123.357 37.4409C123.768 37.0894 123.973 36.6279 123.973 36.0566C123.973 35.4512 123.77 34.9873 123.365 34.665C122.964 34.3428 122.413 34.1816 121.709 34.1816H119.563V37.9609ZM127.635 43V32.0503H129.451V43H127.635ZM131.282 40.6929C131.282 39.8433 131.575 39.1987 132.161 38.7593C132.752 38.3149 133.528 38.0928 134.49 38.0928C135.267 38.0928 135.997 38.2026 136.68 38.4224V38.2759C136.68 37.7241 136.512 37.3042 136.175 37.0161C135.843 36.7231 135.362 36.5767 134.732 36.5767C134.019 36.5767 133.265 36.7427 132.469 37.0747L131.971 35.6172C132.459 35.3975 132.933 35.2339 133.392 35.1265C133.855 35.0142 134.388 34.958 134.988 34.958C136.141 34.958 137.007 35.2485 137.588 35.8296C138.174 36.4058 138.467 37.231 138.467 38.3052V43H136.666V42.0259C136.026 42.7876 135.171 43.1685 134.102 43.1685C133.589 43.1685 133.123 43.0781 132.703 42.8975C132.283 42.7119 131.941 42.4287 131.678 42.0479C131.414 41.667 131.282 41.2153 131.282 40.6929ZM133.084 40.627C133.084 40.9883 133.228 41.2739 133.516 41.4839C133.804 41.6938 134.17 41.7988 134.615 41.7988C135.22 41.7988 135.721 41.645 136.116 41.3374C136.512 41.0249 136.709 40.6245 136.709 40.1362V39.6821C136.182 39.4722 135.577 39.3672 134.893 39.3672C134.322 39.3672 133.877 39.4771 133.56 39.6968C133.243 39.9165 133.084 40.2266 133.084 40.627ZM139.566 35.0825H141.5L143.755 40.9565L145.806 35.0825H147.696L144.546 43.2271C144.229 44.0376 143.873 44.6089 143.477 44.9409C143.086 45.2778 142.574 45.4463 141.939 45.4463C141.285 45.4463 140.66 45.2852 140.064 44.9629L140.679 43.6152C141.041 43.8154 141.395 43.9155 141.741 43.9155C142 43.9155 142.215 43.8472 142.386 43.7104C142.562 43.5737 142.723 43.3369 142.869 43L139.566 35.0825Z" fill="white"/>
<path d="M27.0239 22.2676C26.4829 21.942 25.8381 21.9128 25.2758 22.184L34.7041 31.6324L37.7869 28.5353L27.0239 22.2676ZM24.4095 23.0584C24.2905 23.3103 24.2266 23.5904 24.2266 23.8787V41.1621C24.2266 41.4516 24.291 41.7277 24.4111 41.9742L33.8358 32.5048L24.4095 23.0584ZM34.7054 33.376L25.2922 42.8339C25.542 42.9495 25.8078 43 26.0731 43C26.4009 43 26.7278 42.9217 27.0239 42.7436L37.789 36.4666L34.7054 33.376ZM41.8861 30.9224C41.8824 30.92 41.8783 30.9175 41.8746 30.9154L38.8861 29.1751L35.5733 32.5036L38.8882 35.8255C38.8882 35.8255 41.8824 34.0798 41.8861 34.0778C42.4418 33.7402 42.7736 33.1504 42.7736 32.4999C42.7736 31.8494 42.4418 31.2596 41.8861 30.9224Z" fill="white"/>
</svg>

<svg width="174" height="64" viewBox="0 0 174 64" fill="none" xmlns="http://www.w3.org/2000/svg"><rect width="174" height="64" rx="8" fill="#000"/><path d="M60.972 27.144c-1.344 0-2.512-.452-3.504-1.356l.564-.66c.848.8 1.832 1.2 2.952 1.2.536 0 .996-.148 1.38-.444.384-.304.576-.696.576-1.176 0-.52-.208-.908-.624-1.164-.416-.256-.964-.384-1.644-.384h-.924v-.78h.924c.608 0 1.1-.14 1.476-.42a1.38 1.38 0 00.576-1.164c0-.432-.18-.788-.54-1.068-.352-.288-.804-.432-1.356-.432-.944 0-1.768.316-2.472.948l-.552-.66c.44-.376.896-.656 1.368-.84.48-.184 1.04-.276 1.68-.276.832 0 1.512.212 2.04.636.528.424.792.96.792 1.608 0 .952-.512 1.612-1.536 1.98.536.16.964.412 1.284.756.32.344.48.78.48 1.308 0 .68-.276 1.248-.828 1.704-.544.456-1.248.684-2.112.684zm6.537-.012c-.632 0-1.176-.172-1.632-.516-.456-.344-.684-.824-.684-1.44 0-.648.24-1.148.72-1.5.48-.352 1.124-.528 1.932-.528.64 0 1.272.088 1.896.264v-.192c0-.544-.16-.96-.48-1.248-.32-.288-.772-.432-1.356-.432-.608 0-1.236.148-1.884.444l-.276-.756c.768-.352 1.52-.528 2.256-.528.88 0 1.548.228 2.004.684.432.432.648 1.04.648 1.824V27h-.912v-.924c-.552.704-1.296 1.056-2.232 1.056zm.18-.744c.576 0 1.064-.156 1.464-.468.4-.312.6-.712.6-1.2v-.576a6.492 6.492 0 00-1.812-.264c-.568 0-1.012.116-1.332.348-.32.224-.48.532-.48.924 0 .376.148.676.444.9.304.224.676.336 1.116.336zM72.61 27v-6.204h4.212v.816h-3.288V27h-.924zm5.555 1.92v-8.124h.924v1.248c.624-.92 1.416-1.38 2.376-1.38.792 0 1.484.296 2.076.888.592.584.888 1.368.888 2.352 0 .968-.296 1.748-.888 2.34-.592.592-1.284.888-2.076.888-.976 0-1.768-.44-2.376-1.32v3.108h-.924zm3.132-2.616c.624 0 1.144-.216 1.56-.648.416-.44.624-1.028.624-1.764 0-.712-.212-1.288-.636-1.728a2.051 2.051 0 00-1.548-.672c-.6 0-1.124.228-1.572.684-.448.456-.672 1.032-.672 1.728s.224 1.272.672 1.728c.448.448.972.672 1.572.672zm5.797 2.652c-.448 0-.888-.104-1.32-.312l.312-.732c.296.152.62.228.972.228.28 0 .516-.088.708-.264.192-.168.38-.468.564-.9l-2.82-6.18h1.02l2.256 5.172 1.992-5.172h.984l-2.604 6.408c-.264.632-.556 1.08-.876 1.344-.32.272-.716.408-1.188.408zm8.097-1.812c-.952 0-1.808-.308-2.568-.924l.468-.684c.632.536 1.324.804 2.076.804.424 0 .784-.096 1.08-.288.304-.2.456-.472.456-.816a.838.838 0 00-.408-.744c-.272-.184-.656-.276-1.152-.276h-.828v-.756h.84c.408 0 .74-.096.996-.288.256-.2.384-.46.384-.78 0-.28-.128-.504-.384-.672-.248-.168-.568-.252-.96-.252-.736 0-1.364.208-1.884.624l-.456-.648c.672-.52 1.472-.78 2.4-.78.688 0 1.232.156 1.632.468.408.304.612.7.612 1.188 0 .68-.332 1.156-.996 1.428.768.272 1.152.78 1.152 1.524 0 .52-.224.964-.672 1.332-.448.36-1.044.54-1.788.54zM99.364 27v-6.204h.924v4.908l3.684-4.908h.9V27h-.924v-4.908L100.252 27h-.888zm9.07 0v-5.388h-2.22v-.816h5.376v.816h-2.22V27h-.936zm4.5 0v-6.204h.924v2.328h1.656c.72 0 1.308.156 1.764.468.456.304.684.768.684 1.392 0 .616-.212 1.108-.636 1.476-.424.36-.992.54-1.704.54h-2.688zm.924-.816h1.68c.472 0 .836-.1 1.092-.3.264-.2.396-.492.396-.876 0-.352-.136-.62-.408-.804-.264-.192-.636-.288-1.116-.288h-1.644v2.268zm9.131.816v-6.204h3c.616 0 1.108.14 1.476.42.368.28.552.656.552 1.128 0 .664-.344 1.14-1.032 1.428.912.248 1.368.76 1.368 1.536 0 .52-.204.932-.612 1.236-.408.304-.956.456-1.644.456h-3.108zm.924-.792h2.064c.44 0 .788-.092 1.044-.276a.893.893 0 00.384-.768c0-.304-.136-.54-.408-.708-.264-.168-.644-.252-1.14-.252h-1.944v2.004zm0-2.748h1.908c.384 0 .688-.084.912-.252.232-.176.348-.424.348-.744a.753.753 0 00-.324-.636c-.216-.16-.52-.24-.912-.24h-1.932v1.872zM57.886 37.748c0-.727.134-1.42.403-2.08a5.57 5.57 0 011.113-1.735 5.077 5.077 0 011.721-1.172 5.43 5.43 0 012.176-.44c.879 0 1.628.117 2.248.352a5.87 5.87 0 011.788 1.07l-1.172 1.398a5.19 5.19 0 00-1.34-.85c-.44-.185-.972-.278-1.597-.278a3.16 3.16 0 00-1.736.506 3.53 3.53 0 00-1.23 1.362 4.032 4.032 0 00-.44 1.867c0 .718.146 1.36.44 1.927.292.566.71 1.013 1.252 1.34.547.322 1.172.483 1.875.483.99 0 1.838-.263 2.541-.79v-1.97H63.24v-1.605h4.468v4.41c-1.274 1.093-2.734 1.64-4.38 1.64-1.074 0-2.029-.237-2.864-.71a4.922 4.922 0 01-1.911-1.949c-.445-.825-.667-1.75-.667-2.776zm11.58 1.304c0-.747.18-1.435.542-2.065a4.036 4.036 0 011.523-1.509 4.275 4.275 0 012.168-.564c.796 0 1.516.186 2.16.557a3.945 3.945 0 011.51 1.501 4.11 4.11 0 01.542 2.08c0 .557-.108 1.09-.323 1.597a4.213 4.213 0 01-.878 1.318c-.372.371-.82.667-1.348.886-.527.22-1.091.33-1.692.33a4.237 4.237 0 01-2.153-.556 4.013 4.013 0 01-1.51-1.502 4.093 4.093 0 01-.541-2.073zm1.816 0c0 .703.23 1.306.689 1.81.459.497 1.035.746 1.728.746.718 0 1.297-.246 1.736-.74.44-.492.66-1.098.66-1.816 0-.708-.23-1.308-.69-1.801-.453-.499-1.032-.748-1.735-.748-.713 0-1.29.245-1.729.733-.439.488-.659 1.094-.659 1.816zm8.042 0c0-.747.18-1.435.542-2.065a4.036 4.036 0 011.524-1.509 4.275 4.275 0 012.168-.564c.795 0 1.516.186 2.16.557a3.945 3.945 0 011.51 1.501c.36.63.541 1.323.541 2.08 0 .557-.107 1.09-.322 1.597a4.213 4.213 0 01-.88 1.318 4.1 4.1 0 01-1.347.886c-.527.22-1.091.33-1.692.33a4.237 4.237 0 01-2.153-.556 4.013 4.013 0 01-1.509-1.502 4.093 4.093 0 01-.542-2.073zm1.817 0c0 .703.23 1.306.688 1.81.46.497 1.035.746 1.729.746.717 0 1.296-.246 1.735-.74.44-.492.66-1.098.66-1.816 0-.708-.23-1.308-.689-1.801-.454-.499-1.033-.748-1.736-.748-.713 0-1.289.245-1.728.733-.44.488-.66 1.094-.66 1.816zm8.07-.417c0-.567.101-1.087.301-1.56.205-.479.476-.872.813-1.18a3.67 3.67 0 012.49-.98c.616 0 1.143.121 1.582.365.445.24.843.567 1.194.982v-1.18h1.817v6.3c0 1.313-.337 2.306-1.011 2.98-.713.713-1.797 1.07-3.252 1.07-1.318 0-2.498-.315-3.538-.945l.674-1.37c.899.562 1.839.843 2.82.843.81 0 1.43-.208 1.86-.623.43-.415.645-1.018.645-1.81v-.614c-.361.468-.764.83-1.209 1.084-.439.249-.966.373-1.582.373-.468 0-.918-.085-1.347-.256a3.74 3.74 0 01-1.15-.718 3.358 3.358 0 01-.806-1.187 4.04 4.04 0 01-.3-1.574zm1.832.014c0 .64.215 1.165.644 1.575.435.41.97.615 1.605.615.644 0 1.193-.207 1.647-.622.455-.415.682-.943.682-1.582 0-.64-.227-1.165-.681-1.575-.455-.41-1.004-.615-1.648-.615-.64 0-1.175.205-1.605.615-.43.405-.644.935-.644 1.59zM99.773 43V32.05h1.817V43h-1.817zm3.75-3.962c0-.752.164-1.44.491-2.066.327-.63.789-1.13 1.384-1.501a3.708 3.708 0 012-.557c.493 0 .947.076 1.362.227.415.147.769.352 1.062.615.298.264.55.577.755.938.21.356.363.744.461 1.164.103.42.154.86.154 1.319 0 .22-.01.388-.029.505h-5.823c.098.635.351 1.13.762 1.487.415.352.92.527 1.516.527a2.78 2.78 0 001.15-.227c.336-.156.669-.395.996-.718l1.069.945c-.82.992-1.902 1.487-3.245 1.487-.761 0-1.45-.17-2.065-.513a3.772 3.772 0 01-1.465-1.464c-.356-.635-.535-1.358-.535-2.168zm1.802-.55h4.065c-.063-.615-.271-1.115-.622-1.501-.347-.39-.809-.586-1.385-.586-.547 0-1.006.193-1.377.578-.366.381-.593.884-.681 1.51zM117.718 43V32.497h4.145c1.221 0 2.19.322 2.908.967.718.64 1.077 1.499 1.077 2.578 0 .762-.193 1.418-.579 1.97a3.42 3.42 0 01-1.509 1.216c-.62.264-1.323.395-2.109.395h-2.088V43h-1.845zm1.845-5.04h2.146c.689 0 1.238-.172 1.648-.52.411-.35.616-.812.616-1.383 0-.606-.203-1.07-.608-1.392-.401-.322-.952-.483-1.656-.483h-2.146v3.779zm8.072 5.04V32.05h1.816V43h-1.816zm3.647-2.307c0-.85.293-1.494.879-1.934.591-.444 1.367-.666 2.329-.666.777 0 1.507.11 2.19.33v-.147c0-.552-.168-.972-.505-1.26-.332-.293-.813-.44-1.443-.44-.713 0-1.467.167-2.263.499l-.498-1.458c.488-.22.962-.383 1.421-.49a6.811 6.811 0 011.596-.169c1.153 0 2.019.29 2.6.872.586.576.879 1.401.879 2.475V43h-1.801v-.974c-.64.762-1.495 1.142-2.564 1.142-.513 0-.979-.09-1.399-.27a2.406 2.406 0 01-1.025-.85c-.264-.381-.396-.833-.396-1.355zm1.802-.066c0 .361.144.647.432.857.288.21.654.315 1.099.315.605 0 1.106-.154 1.501-.462.396-.312.593-.713.593-1.2v-.455c-.527-.21-1.132-.315-1.816-.315-.571 0-1.016.11-1.333.33-.317.22-.476.53-.476.93zm6.482-5.544h1.934l2.255 5.873 2.051-5.873h1.89l-3.15 8.144c-.317.81-.673 1.382-1.069 1.714-.391.337-.903.505-1.538.505a3.888 3.888 0 01-1.875-.483l.615-1.348c.362.2.716.3 1.062.3a1 1 0 00.645-.205c.176-.136.337-.373.483-.71l-3.303-7.917zM27.024 22.268a1.822 1.822 0 00-1.748-.084l9.428 9.448 3.083-3.097-10.763-6.267zm-2.614.79a1.92 1.92 0 00-.183.82v17.284c0 .29.064.566.184.812l9.425-9.47-9.426-9.446zm10.295 10.318l-9.413 9.458c.25.115.516.166.781.166.328 0 .655-.078.95-.256l10.766-6.277-3.084-3.091zm7.181-2.454a.236.236 0 00-.011-.007l-2.989-1.74-3.313 3.329 3.315 3.322 2.998-1.748c.556-.338.888-.928.888-1.578s-.332-1.24-.888-1.578z" fill="#fff"/></svg>
